src/images/pages/cashier/ethereum-icon.svg

<svg width="72" height="45" viewBox="0 0 72 45" fill="none" xmlns="http://www.w3.org/2000/svg">
<path d="M3.375 22.2174L8.56252 25.2866V19.8611V13.6047L3.375 22.2174Z" fill="#828CAD"/>
<path d="M8.56262 13.6047V19.8611V25.2866L13.7562 22.2174L8.56262 13.6047Z" fill="#63688E"/>
<path d="M3.375 23.2051L8.56252 30.518V26.2671L3.375 23.2051Z" fill="#8A93B3"/>
<path d="M8.56262 26.2671V30.518L13.7562 23.2051L8.56262 26.2671Z" fill="#63688E"/>
<path opacity="0.6" d="M8.56252 19.8613L3.375 22.2176L8.56252 25.2868V22.2176V19.8613Z" fill="#63688E"/>
<path opacity="0.6" d="M8.5625 19.8613V22.2176V25.2868L13.7561 22.2176L8.5625 19.8613Z" fill="#474A75"/>
<path d="M30.0938 16.7344C30.3267 16.7344 30.5156 16.9233 30.5156 17.1563V21.2397C30.9326 20.8856 31.4726 20.6719 32.0625 20.6719C33.3828 20.6719 34.4531 21.7422 34.4531 23.0625V25.5938C34.4531 25.8267 34.2642 26.0156 34.0312 26.0156C33.7983 26.0156 33.6094 25.8267 33.6094 25.5938V23.0625C33.6094 22.2082 32.9168 21.5156 32.0625 21.5156C31.2082 21.5156 30.5156 22.2082 30.5156 23.0625V25.5938C30.5156 25.8267 30.3267 26.0156 30.0938 26.0156C29.8608 26.0156 29.6719 25.8267 29.6719 25.5938V17.1563C29.6719 16.9233 29.8608 16.7344 30.0938 16.7344Z" fill="#63688E"/>
<path d="M62.4376 20.6719C61.8476 20.6719 61.3076 20.8856 60.8907 21.2397V21.0938C60.8907 20.8608 60.7018 20.6719 60.4688 20.6719C60.2358 20.6719 60.0469 20.8608 60.0469 21.0938V25.5938C60.0469 25.8267 60.2358 26.0156 60.4688 26.0156C60.7018 26.0156 60.8907 25.8267 60.8907 25.5938V23.0625C60.8907 22.2082 61.5833 21.5156 62.4376 21.5156C63.2919 21.5156 63.9844 22.2082 63.9844 23.0625V25.5938C63.9844 25.8267 64.1733 26.0156 64.4063 26.0156C64.6393 26.0156 64.8282 25.8267 64.8282 25.5938V23.0625C64.8282 22.2082 65.5208 21.5156 66.3751 21.5156C67.2294 21.5156 67.9219 22.2082 67.9219 23.0625V25.5938C67.9219 25.8267 68.1108 26.0156 68.3438 26.0156C68.5768 26.0156 68.7657 25.8267 68.7657 25.5938V23.0625C68.7657 21.7422 67.6954 20.6719 66.3751 20.6719C65.5585 20.6719 64.8376 21.0813 64.4063 21.706C63.9751 21.0813 63.2541 20.6719 62.4376 20.6719Z" fill="#63688E"/>
<path d="M54.4219 21.0938C54.4219 20.8608 54.2331 20.6719 54.0001 20.6719C53.7671 20.6719 53.5782 20.8608 53.5782 21.0938V23.625C53.5782 24.9453 54.6485 26.0156 55.9688 26.0156C56.5587 26.0156 57.0988 25.802 57.5157 25.4478V25.5938C57.5157 25.8267 57.7046 26.0156 57.9376 26.0156C58.1706 26.0156 58.3594 25.8267 58.3594 25.5938V21.0938C58.3594 20.8608 58.1706 20.6719 57.9376 20.6719C57.7046 20.6719 57.5157 20.8608 57.5157 21.0938V23.625C57.5157 24.4793 56.8231 25.1719 55.9688 25.1719C55.1145 25.1719 54.4219 24.4793 54.4219 23.625V21.0938Z" fill="#63688E"/>
<path d="M43.1719 21.0938V22.7743L43.1719 22.7836L43.1719 22.7892V25.5938C43.1719 25.8267 43.3608 26.0156 43.5938 26.0156C43.8268 26.0156 44.0157 25.8267 44.0157 25.5938V22.8234L44.0196 22.8065C44.0281 22.7708 44.0424 22.7169 44.0644 22.651C44.1087 22.5179 44.1819 22.3432 44.2964 22.1715C44.5175 21.8398 44.8897 21.5156 45.5626 21.5156C45.7956 21.5156 45.9844 21.3267 45.9844 21.0938C45.9844 20.8608 45.7956 20.6719 45.5626 20.6719C44.8765 20.6719 44.3744 20.9094 44.0157 21.2216V21.0938C44.0157 20.8608 43.8268 20.6719 43.5938 20.6719C43.3608 20.6719 43.1719 20.8608 43.1719 21.0938Z" fill="#63688E"/>
<path d="M26.5781 19.4063C26.5781 19.1733 26.3892 18.9844 26.1562 18.9844C25.9233 18.9844 25.7344 19.1733 25.7344 19.4063V20.6719H24.75C24.517 20.6719 24.3281 20.8608 24.3281 21.0938C24.3281 21.3267 24.517 21.5156 24.75 21.5156H25.7344V25.5938C25.7344 25.8267 25.9233 26.0156 26.1562 26.0156C26.3892 26.0156 26.5781 25.8267 26.5781 25.5938V21.5156H27.5625C27.7955 21.5156 27.9844 21.3267 27.9844 21.0938C27.9844 20.8608 27.7955 20.6719 27.5625 20.6719H26.5781V19.4063Z" fill="#63688E"/>
<path fill-rule="evenodd" clip-rule="evenodd" d="M20.3921 20.7056C19.7649 20.605 19.1224 20.7311 18.5797 21.0613C18.0371 21.3916 17.6298 21.9043 17.4311 22.5077C17.2323 23.111 17.255 23.7655 17.4951 24.3536C17.7351 24.9417 18.1769 25.425 18.7411 25.7169C19.3054 26.0088 19.9551 26.0901 20.5738 25.9462C21.1926 25.8023 21.7398 25.4427 22.1174 24.9319C22.2559 24.7445 22.2163 24.4804 22.0289 24.3419C21.8415 24.2034 21.5774 24.243 21.4389 24.4304C21.1805 24.7799 20.8061 25.0259 20.3828 25.1244C19.9594 25.2228 19.5148 25.1672 19.1288 24.9675C18.7428 24.7678 18.4405 24.4371 18.2762 24.0347C18.2404 23.9469 18.2116 23.8569 18.19 23.7656H22.2188C22.4517 23.7656 22.6406 23.5767 22.6406 23.3438C22.6406 22.7085 22.4143 22.0941 22.0022 21.6106C21.5902 21.1271 21.0193 20.8063 20.3921 20.7056ZM21.7475 22.9219H18.19C18.2019 22.8714 18.2161 22.8213 18.2324 22.7717C18.3684 22.3589 18.6471 22.008 19.0184 21.7821C19.3896 21.5561 19.8293 21.4699 20.2584 21.5387C20.6876 21.6076 21.0781 21.8271 21.3601 22.1579C21.5492 22.3798 21.6812 22.6421 21.7475 22.9219Z" fill="#63688E"/>
<path fill-rule="evenodd" clip-rule="evenodd" d="M37.7047 21.0613C38.2474 20.7311 38.8899 20.605 39.5171 20.7056C40.1443 20.8063 40.7152 21.1271 41.1272 21.6106C41.5393 22.0941 41.7656 22.7085 41.7656 23.3438V23.7656H37.315C37.3366 23.8569 37.3654 23.9469 37.4012 24.0347C37.5655 24.4371 37.8678 24.7678 38.2538 24.9675C38.6398 25.1672 39.0844 25.2228 39.5078 25.1244C39.9311 25.0259 40.3055 24.7799 40.5639 24.4304C40.7024 24.243 40.9665 24.2034 41.1539 24.3419C41.3413 24.4804 41.3809 24.7445 41.2424 24.9319C40.8648 25.4427 40.3176 25.8023 39.6988 25.9462C39.0801 26.0901 38.4304 26.0088 37.8661 25.7169C37.3019 25.425 36.8601 24.9417 36.6201 24.3536C36.38 23.7655 36.3573 23.111 36.5561 22.5077C36.7548 21.9043 37.1621 21.3916 37.7047 21.0613ZM37.315 22.9219H40.8725C40.8062 22.6421 40.6742 22.3798 40.4851 22.1579C40.2031 21.8271 39.8126 21.6076 39.3834 21.5387C38.9543 21.4699 38.5146 21.5561 38.1434 21.7821C37.7721 22.008 37.4934 22.3589 37.3574 22.7717C37.3411 22.8213 37.3269 22.8714 37.315 22.9219Z" fill="#63688E"/>
<path fill-rule="evenodd" clip-rule="evenodd" d="M50.2046 20.7056C49.5774 20.605 48.9349 20.7311 48.3922 21.0613C47.8496 21.3916 47.4423 21.9043 47.2436 22.5077C47.0448 23.111 47.0675 23.7655 47.3076 24.3536C47.5476 24.9417 47.9894 25.425 48.5536 25.7169C49.1179 26.0088 49.7676 26.0901 50.3863 25.9462C51.0051 25.8023 51.5523 25.4427 51.9299 24.9319C52.0684 24.7445 52.0288 24.4804 51.8414 24.3419C51.654 24.2034 51.3899 24.243 51.2514 24.4304C50.993 24.7799 50.6186 25.0259 50.1953 25.1244C49.7719 25.2228 49.3273 25.1672 48.9413 24.9675C48.5553 24.7678 48.253 24.4371 48.0887 24.0347C48.0529 23.9469 48.0241 23.8569 48.0025 23.7656H52.4531V23.3438C52.4531 22.7085 52.2268 22.0941 51.8147 21.6106C51.4027 21.1271 50.8318 20.8063 50.2046 20.7056ZM51.56 22.9219H48.0025C48.0144 22.8714 48.0286 22.8213 48.0449 22.7717C48.1809 22.3589 48.4596 22.008 48.8309 21.7821C49.2021 21.5561 49.6418 21.4699 50.0709 21.5387C50.5001 21.6076 50.8906 21.8271 51.1726 22.1579C51.3617 22.3798 51.4937 22.6421 51.56 22.9219Z" fill="#63688E"/>
</svg>

<svg width="72" height="45" fill="none" xmlns="http://www.w3.org/2000/svg"><path d="M3.375 22.217l5.188 3.07V13.605l-5.188 8.612z" fill="#828CAD"/><path d="M8.563 13.605v11.682l5.193-3.07-5.193-8.612z" fill="#63688E"/><path d="M3.375 23.205l5.188 7.313v-4.25l-5.188-3.063z" fill="#8A93B3"/><path d="M8.563 26.267v4.251l5.193-7.313-5.193 3.062z" fill="#63688E"/><path opacity=".6" d="M8.563 19.861l-5.188 2.357 5.188 3.069V19.86z" fill="#63688E"/><path opacity=".6" d="M8.563 19.861v5.426l5.193-3.07-5.194-2.356z" fill="#474A75"/><path d="M30.094 16.734c.233 0 .422.19.422.422v4.084a2.39 2.39 0 013.938 1.823v2.53a.422.422 0 01-.845 0v-2.53a1.547 1.547 0 00-3.093 0v2.53a.422.422 0 01-.844 0v-8.437c0-.233.189-.422.422-.422zM62.438 20.672c-.59 0-1.13.214-1.547.568v-.146a.422.422 0 00-.844 0v4.5a.422.422 0 00.844 0v-2.532a1.547 1.547 0 013.093 0v2.532a.422.422 0 00.844 0v-2.532a1.547 1.547 0 013.094 0v2.532a.422.422 0 00.844 0v-2.532a2.39 2.39 0 00-4.36-1.356 2.388 2.388 0 00-1.968-1.034zM54.422 21.094a.422.422 0 10-.844 0v2.531a2.39 2.39 0 003.938 1.823v.146a.422.422 0 00.843 0v-4.5a.422.422 0 10-.843 0v2.531a1.547 1.547 0 01-3.094 0v-2.531zM43.172 21.094v4.5a.422.422 0 00.844 0v-2.77l.004-.018a2.03 2.03 0 01.277-.635c.22-.331.593-.655 1.266-.655a.422.422 0 000-.844c-.687 0-1.189.237-1.547.55v-.128a.422.422 0 00-.844 0zM26.578 19.406a.422.422 0 00-.844 0v1.266h-.984a.422.422 0 000 .844h.984v4.078a.422.422 0 00.844 0v-4.078h.985a.422.422 0 100-.844h-.985v-1.266z" fill="#63688E"/><path fill-rule="evenodd" clip-rule="evenodd" d="M20.392 20.706a2.672 2.672 0 101.725 4.226.422.422 0 10-.678-.502 1.829 1.829 0 01-3.249-.664h4.029a.422.422 0 00.422-.422 2.672 2.672 0 00-2.249-2.638zm1.355 2.216H18.19a1.828 1.828 0 013.557 0zM37.705 21.061a2.672 2.672 0 014.06 2.283v.422h-4.45a1.827 1.827 0 003.249.664.422.422 0 11.678.502 2.672 2.672 0 11-3.537-3.87zm-.39 1.86h3.558a1.828 1.828 0 00-3.558 0zM50.205 20.706a2.672 2.672 0 101.725 4.226.422.422 0 10-.679-.502 1.829 1.829 0 01-3.248-.664h4.45v-.422a2.672 2.672 0 00-2.248-2.638zm1.355 2.216h-3.558a1.828 1.828 0 013.558 0z" fill="#63688E"/></svg>
